icons/Calendar_filled.svg

<svg width="24" height="24" viewBox="0 0 24 24" fill="none" xmlns="http://www.w3.org/2000/svg">
<path fill-rule="evenodd" clip-rule="evenodd" d="M8,2.5c0.41421,0 0.75,0.33579 0.75,0.75v1.25h6.5v-1.25c0,-0.41421 0.3358,-0.75 0.75,-0.75c0.4142,0 0.75,0.33579 0.75,0.75v1.25h1.25c1.5188,0 2.75,1.23122 2.75,2.75v4v0.75v7.25c0,1.5188 -1.2312,2.75 -2.75,2.75h-12c-1.51878,0 -2.75,-1.2312 -2.75,-2.75v-7.25v-0.75v-4c0,-1.51878 1.23122,-2.75 2.75,-2.75h1.25v-1.25c0,-0.41421 0.33579,-0.75 0.75,-0.75zM19.25,12h-14.5v7.25c0,0.6904 0.55964,1.25 1.25,1.25h12c0.6904,0 1.25,-0.5596 1.25,-1.25z" fill="#002B51"/>
</svg>

<svg width="24" height="24" viewBox="0 0 24 24" fill="none" xmlns="http://www.w3.org/2000/svg">
<path fill-rule="evenodd" clip-rule="evenodd" d="M8 2.5C8.41421 2.5 8.75 2.83579 8.75 3.25V4.5H15.25V3.25C15.25 2.83579 15.5858 2.5 16 2.5C16.4142 2.5 16.75 2.83579 16.75 3.25V4.5H18C19.5188 4.5 20.75 5.73122 20.75 7.25V11.25V12V19.25C20.75 20.7688 19.5188 22 18 22H6C4.48122 22 3.25 20.7688 3.25 19.25V12V11.25V7.25C3.25 5.73122 4.48122 4.5 6 4.5H7.25V3.25C7.25 2.83579 7.58579 2.5 8 2.5ZM19.25 12H4.75V19.25C4.75 19.9404 5.30964 20.5 6 20.5H18C18.6904 20.5 19.25 19.9404 19.25 19.25V12Z" fill="#002B51"/>
</svg>
